X: 2
T:Bower Processional, Lichfield 2
M:2/4
L:1/8
A:Lichfield
P:(AB)6
K:G
P:A
B|GBBB|GBBB|d2c>c|B3B|
GBBB|GBBB|dcAF |G2 ||
P:B
Bc|d2dd|d2dd|egfe |d3d|
dccc|cBBB|dcAF |G3 ||
